svg/emoji_u25aa.svg

<?xml version="1.0" encoding="UTF-8"?>
<svg width="128" height="128" enable-background="new 0 0 128 128" xmlns="http://www.w3.org/2000/svg"><linearGradient id="a" x1="64" x2="64" y1="45.763" y2="82.409" gradientUnits="userSpaceOnUse"><stop stop-color="#616161" offset="0"/><stop stop-color="#4E4E4E" offset=".3517"/><stop stop-color="#212121" offset="1"/></linearGradient><path d="M77.33,80H50.67C49.19,80,48,78.81,48,77.33V50.67c0-1.47,1.19-2.67,2.67-2.67h26.67 c1.47,0,2.67,1.19,2.67,2.67v26.67C80,78.81,78.81,80,77.33,80z" fill="url(#a)"/><g opacity=".2"><path d="m77 51v26h-26v-26h26m0.33-3h-26.66c-1.48 0-2.67 1.19-2.67 2.67v26.67c0 1.47 1.19 2.67 2.67 2.67h26.67c1.47 0 2.67-1.19 2.67-2.67v-26.67c-0.01-1.48-1.2-2.67-2.68-2.67z" fill="#eee"/></g></svg>

<svg width="128" height="128" style="enable-background:new 0 0 128 128;" xmlns="http://www.w3.org/2000/svg" xmlns:xlink="http://www.w3.org/1999/xlink">
  <g>
    <linearGradient id="SVGID_1_" gradientUnits="userSpaceOnUse" x1="64" x2="64" y1="45.7633" y2="82.4094">
      <stop offset="0" style="stop-color:#616161"/>
      <stop offset="0.3517" style="stop-color:#4E4E4E"/>
      <stop offset="1" style="stop-color:#212121"/>
    </linearGradient>
    <path d="M77.33,80H50.67C49.19,80,48,78.81,48,77.33V50.67c0-1.47,1.19-2.67,2.67-2.67h26.67 c1.47,0,2.67,1.19,2.67,2.67v26.67C80,78.81,78.81,80,77.33,80z" style="fill:url(#SVGID_1_);"/>
    <g style="opacity:0.2;">
      <path d="M77,51v26H51V51H77 M77.33,48H50.67C49.19,48,48,49.19,48,50.67v26.67c0,1.47,1.19,2.67,2.67,2.67 h26.67c1.47,0,2.67-1.19,2.67-2.67V50.67C80,49.19,78.81,48,77.33,48L77.33,48z" style="fill:#EEEEEE;"/>
    </g>
  </g>
</svg>
